src/lib/packages/icons/src/assets/filled/blogger.svg

<svg width="24" height="24" viewBox="0 0 24 24" fill="none" xmlns="http://www.w3.org/2000/svg">
<path d="M19.82 9.95978H18.73C18.14 9.95978 17.64 9.45977 17.64 8.86977C17.64 5.75977 15.12 3.00977 12 3.00977H8.64001C5.53001 3.00977 3 5.52977 3 8.64977V15.3798C3 18.4898 5.52001 21.0198 8.64001 21.0198H15.37C18.48 21.0198 21.01 18.4998 21.01 15.3798V11.1498C21.01 10.4798 20.51 9.96977 19.83 9.96977L19.82 9.95978ZM8.54999 7.81978H12.59C13.18 7.81978 13.68 8.31977 13.68 8.90977C13.68 9.49977 13.18 9.99977 12.59 9.99977H8.54999C7.95999 9.99977 7.45999 9.49977 7.45999 8.90977C7.45999 8.31977 7.95999 7.81978 8.54999 7.81978ZM15.36 16.5998H8.54999C7.95999 16.5998 7.45999 16.0998 7.45999 15.5098C7.45999 14.9198 7.95999 14.4198 8.54999 14.4198H15.36C15.95 14.4198 16.45 14.9198 16.45 15.5098C16.45 16.0998 15.95 16.5998 15.36 16.5998Z" fill="currentColor"/>
</svg>

<svg xmlns="http://www.w3.org/2000/svg" width="24" height="24" fill="none"><path fill="currentColor" d="M19.82 9.96h-1.09c-.59 0-1.09-.5-1.09-1.09 0-3.11-2.52-5.86-5.64-5.86H8.64A5.64 5.64 0 0 0 3 8.65v6.73a5.64 5.64 0 0 0 5.64 5.64h6.73a5.64 5.64 0 0 0 5.64-5.64v-4.23c0-.67-.5-1.18-1.18-1.18l-.01-.01ZM8.55 7.82h4.04c.59 0 1.09.5 1.09 1.09 0 .59-.5 1.09-1.09 1.09H8.55c-.59 0-1.09-.5-1.09-1.09 0-.59.5-1.09 1.09-1.09Zm6.81 8.78H8.55c-.59 0-1.09-.5-1.09-1.09 0-.59.5-1.09 1.09-1.09h6.81c.59 0 1.09.5 1.09 1.09 0 .59-.5 1.09-1.09 1.09Z"/></svg>
